X:32
T:Waltz. 2voices Dix.32
M:3/8
L:1/8
Q:3/8=60
S:Anon. MS dated 1811, from Dixon collection, Holton le Moor, Lincs.
R:waltz
N:Repeat marks added at start
O:England;Lincolnshire;Holton le Moor
Z:vmp.R.Greig 2012 <http://www.village-music-project.org.uk>
K:Bb
[V:1]|:z|[d2F2][cF]|[B2D2](B/d/)|(c/e/)(A/c/)(B/d/)|FFF|[d2D2][cE]|[B2D2]B/d/|c/e/A/c/e/c/|[B2D2]:|
[V:2]|:z|B,,B,F,|B,B,,B,|[CA,F,][CA,F,][DA,F,]|[CA,F,][CA,F,][CA,F,]|B,B,,B,|B,B,,B,|E,F,F,,|B,,B,:|
[V:1]|:B/d/|c/e/A/c/B/d/|c/e/A/c/B/d/|c/e/A/c/B/d/|FFF|[d2F2][cE]|[B2D2] B/d/|c/e/A/c/B/d/|[B2D2]:|
[V:2]|:z|[CA,F,][CA,F,][DA,F,]|[FA,F,][CA,F,][DA,F,]|[FA,F,][CA,F,][DA,F,]|[CA,F,][CA,F,][CA,F,]|B,B,,B,|B,B,,B,|E,F,F,,|[B,2B,,2]:|
[V:1]|:F|B/A/B/c/d/e/|fdf|{a}g/f/g/a/b/g/|{g}fd/f/g/f/|{f}ec/e/g/e/|{e}dB/d/f/d/|c/d/e/c/B/A/|[B2D2]:|
[V:2]|:z|B,,D,F,|B,,D,F,|B,,D,F,|B,,D,F,|A,,E,G,|B,,D,F,|F,,C,F,|B,,2:|
[V:1]|:[d/B/]f/|e/f/c/f/e/f/|d/f/B/f/d/f/|e/f/c/f/e/f/|d/f/B/f/d/f/|e/f/c/f/e/f/|d/f/b/a/g/^f/|{f}”note added”ge/c/B/A/|”DC”B2:|
[V:2]|:z|F,[CE][CE]|F,[B,D][B,D]|F,[CE][CE]|F,[B,D][B,D]|F,[CE][CE]|[C2A,2]z|DEF,|B,B,,:|

